**kern	**silbe	**kern	**silbe	**kern	**silbe	**harmony	**phrase	**leadinstrument	**rhyme	**timestamp	**harte
*ICvox	*	*ICvox	*	*ICvox	*	*M4/4	*	*	*	*	*M4/4
*VRlead*VRresponse	*	*VRharmonize	*	*VRbacking	*	*	*	*	*	*	*
*Hstimme	*	*Nstimme	*	*Nstimme	*	*	*	*	*	*	*
*d:	*	*d:	*	*d:	*	*d:	*d:	*d:	*	*d:	*d:
*M4/4	*	*M4/4	*	*M4/4	*	*	*	*	*	*	*
*clefC3	*	*clefF4	*	*clefG2	*	*	*	*	*	*	*
r;	.	r;	.	r;	.	1r;	.	r	.	0	N.C.
=1	=1	=1	=1	=1	=1	=1	=1	=1	=1	=1	=1
*>Letter>A	*>Letter>A	*>Letter>A	*>Letter>A	*>Letter>A	*>Letter>A	*>Letter>A	*>Letter>A	*>Letter>A	*>Letter>A	*>Letter>A	*>Letter>A
*>Label>Intro	*>Label>Intro	*>Label>Intro	*>Label>Intro	*>Label>Intro	*>Label>Intro	*>Label>Intro	*>Label>Intro	*>Label>Intro	*>Label>Intro	*>Label>Intro	*>Label>Intro
1r	.	1r	.	1r	.	1Dm	newline	synthesizer	.	0.232	D:min
=2	=2	=2	=2	=2	=2	=2	=2	=2	=2	=2	=2
1r	.	1r	.	1r	.	1Dm	.	synthesizer	.	1.868	D:min
=3	=3	=3	=3	=3	=3	=3	=3	=3	=3	=3	=3
1r	.	1r	.	1r	.	1Dm	.	synthesizer	.	3.503	D:min
=4	=4	=4	=4	=4	=4	=4	=4	=4	=4	=4	=4
1r	.	1r	.	1r	.	1Dm	.	synthesizer	.	5.138	D:min
=5	=5	=5	=5	=5	=5	=5	=5	=5	=5	=5	=5
1r	.	1r	.	1r	.	1Dm	newline	synthesizer	.	6.774	D:min
=6	=6	=6	=6	=6	=6	=6	=6	=6	=6	=6	=6
1r	.	1r	.	1r	.	1Dm	.	synthesizer	.	8.378	D:min
=7	=7	=7	=7	=7	=7	=7	=7	=7	=7	=7	=7
1r	.	1r	.	1r	.	1Dm	.	synthesizer	.	9.983	D:min
=8	=8	=8	=8	=8	=8	=8	=8	=8	=8	=8	=8
2r	.	1r	.	1r	.	1Dm	.	synthesizer	.	11.588	D:min
8fq	_	.	.	.	.	.	.	.	.	.	.
2g	Co-	.	.	.	.	.	.	.	.	.	.
=9	=9	=9	=9	=9	=9	=9	=9	=9	=9	=9	=9
*>Letter>B	*>Letter>B	*>Letter>B	*>Letter>B	*>Letter>B	*>Letter>B	*>Letter>B	*>Letter>B	*>Letter>B	*>Letter>B	*>Letter>B	*>Letter>B
*>Label>Verse	*>Label>Verse	*>Label>Verse	*>Label>Verse	*>Label>Verse	*>Label>Verse	*>Label>Verse	*>Label>Verse	*>Label>Verse	*>Label>Verse	*>Label>Verse	*>Label>Verse
6f	-ver	1r	.	1r	.	1Dm	newline	voice	.	13.192	D:min
6f	me	.	.	.	.	.	.	.	A	.	.
6r	.	.	.	.	.	.	.	.	.	.	.
2r	.	.	.	.	.	.	.	.	.	.	.
=10	=10	=10	=10	=10	=10	=10	=10	=10	=10	=10	=10
2r	.	1r	.	1r	.	1Dm	.	voice	.	14.811	D:min
8dq	_	.	.	.	.	.	.	.	.	.	.
4e	when	.	.	.	.	.	.	.	.	.	.
4d	I	.	.	.	.	.	.	.	.	.	.
=11	=11	=11	=11	=11	=11	=11	=11	=11	=11	=11	=11
4d	run	1r	.	1r	.	1Dm	.	voice	.	16.43	D:min
4r	.	.	.	.	.	.	.	.	.	.	.
2r	.	.	.	.	.	.	.	.	.	.	.
=12	=12	=12	=12	=12	=12	=12	=12	=12	=12	=12	=12
2r	.	1r	.	1r	.	1Dm	.	voice	.	18.049	D:min
8fq	_	.	.	.	.	.	.	.	.	.	.
4.g	Co-	.	.	.	.	.	.	.	.	.	.
[8f	-ver	.	.	.	.	.	.	.	.	.	.
=13	=13	=13	=13	=13	=13	=13	=13	=13	=13	=13	=13
6f]	_	1r	.	1r	.	1Dm	newline	voice	.	19.667	D:min
6f	me	.	.	.	.	.	.	.	A	.	.
6r	.	.	.	.	.	.	.	.	.	.	.
2r	.	.	.	.	.	.	.	.	.	.	.
=14	=14	=14	=14	=14	=14	=14	=14	=14	=14	=14	=14
2r	.	1r	.	1r	.	1Dm	.	voice	.	21.282	D:min
8dq	_	.	.	.	.	.	.	.	.	.	.
4e	through	.	.	.	.	.	.	.	.	.	.
8d	the	.	.	.	.	.	.	.	.	.	.
[8d	fi	.	.	.	.	.	.	.	.	.	.
=15	=15	=15	=15	=15	=15	=15	=15	=15	=15	=15	=15
8d]	_	1r	.	1r	.	1Dm	.	voice	.	22.896	D:min
8d	re	.	.	.	.	.	.	.	.	.	.
4r	.	.	.	.	.	.	.	.	.	.	.
2r	.	.	.	.	.	.	.	.	.	.	.
=16	=16	=16	=16	=16	=16	=16	=16	=16	=16	=16	=16
1r	.	1r	.	1r	.	1Dm	.	voice	.	24.51	D:min
=17	=17	=17	=17	=17	=17	=17	=17	=17	=17	=17	=17
8d	Some-	1r	.	1r	.	1Dm	newline	voice	.	26.125	D:min
4d	-thing	.	.	.	.	.	.	.	.	.	.
8f	knocked	.	.	.	.	.	.	.	.	.	.
8r	.	.	.	.	.	.	.	.	.	.	.
4f	me	.	.	.	.	.	.	.	a	.	.
8a	out	.	.	.	.	.	.	.	.	.	.
=18	=18	=18	=18	=18	=18	=18	=18	=18	=18	=18	=18
8r	.	1r	.	1r	.	1Dm	.	voice	.	27.736	D:min
4a	the	.	.	.	.	.	.	.	.	.	.
8fq	_	.	.	.	.	.	.	.	.	.	.
[8g	trees	.	.	.	.	.	.	.	A	.	.
16g]	_	.	.	.	.	.	.	.	.	.	.
16f	_	.	.	.	.	.	.	.	.	.	.
[8d	_	.	.	.	.	.	.	.	.	.	.
4d]	_	.	.	.	.	.	.	.	.	.	.
=19	=19	=19	=19	=19	=19	=19	=19	=19	=19	=19	=19
8r	.	1r	.	1r	.	1Dm	.	voice	.	29.347	D:min
8d	n-	.	.	.	.	.	.	.	.	.	.
8d	-now	.	.	.	.	.	.	.	.	.	.
8d	I'm	.	.	.	.	.	.	.	.	.	.
8f	on	.	.	.	.	.	.	.	.	.	.
4f	my	.	.	.	.	.	.	.	.	.	.
8ccq	_	.	.	.	.	.	.	.	.	.	.
[8dd	knees	.	.	.	.	.	.	.	A	.	.
=20	=20	=20	=20	=20	=20	=20	=20	=20	=20	=20	=20
2dd]	_	1r	.	1r	.	1Dm	.	voice	.	30.958	D:min
8r	.	.	.	.	.	.	.	.	.	.	.
8fq	_	.	.	.	.	.	.	.	.	.	.
4g	co-	.	.	.	.	.	.	.	.	.	.
[8f	-ver	.	.	.	.	.	.	.	.	.	.
=21	=21	=21	=21	=21	=21	=21	=21	=21	=21	=21	=21
8f]	_	1r	.	1r	.	1Dm	newline	voice	.	32.569	D:min
8f	me	.	.	.	.	.	.	.	A	.	.
4r	.	.	.	.	.	.	.	.	.	.	.
2r	.	.	.	.	.	.	.	.	.	.	.
=22	=22	=22	=22	=22	=22	=22	=22	=22	=22	=22	=22
2r	.	1r	.	1r	.	1Dm	.	voice	.	34.191	D:min
8dq	_	.	.	.	.	.	.	.	.	.	.
4e	dar-	.	.	.	.	.	.	.	.	.	.
4d	-ling,	.	.	.	.	.	.	.	.	.	.
=23	=23	=23	=23	=23	=23	=23	=23	=23	=23	=23	=23
4d	please	1r	.	1r	.	1Dm	.	voice	A	35.812	D:min
4r	.	.	.	.	.	.	.	.	.	.	.
2r	.	.	.	.	.	.	.	.	.	.	.
=24	=24	=24	=24	=24	=24	=24	=24	=24	=24	=24	=24
8r	.	1r	.	1r	.	1Dm	.	voice	.	37.434	D:min
8a	Hey,	.	.	.	.	.	.	.	.	.	.
8g	_	.	.	.	.	.	.	.	.	.	.
8f	_	.	.	.	.	.	.	.	.	.	.
8gq	_	.	.	.	.	.	.	.	.	.	.
4a	hey,	.	.	.	.	.	.	.	.	.	.
4g	hey,	.	.	.	.	.	.	.	.	.	.
=25	=25	=25	=25	=25	=25	=25	=25	=25	=25	=25	=25
*>Letter>C	*>Letter>C	*>Letter>C	*>Letter>C	*>Letter>C	*>Letter>C	*>Letter>C	*>Letter>C	*>Letter>C	*>Letter>C	*>Letter>C	*>Letter>C
*>Label>Chorus	*>Label>Chorus	*>Label>Chorus	*>Label>Chorus	*>Label>Chorus	*>Label>Chorus	*>Label>Chorus	*>Label>Chorus	*>Label>Chorus	*>Label>Chorus	*>Label>Chorus	*>Label>Chorus
8eq	_	.	.	.	.	.	.	.	.	.	.
4f	mon-	1r	.	1r	.	1CM	newline	voice	.	39.055	C:maj
4e	-key	.	.	.	.	.	.	.	a	.	.
2r	.	.	.	.	.	.	.	.	.	.	.
=26	=26	=26	=26	=26	=26	=26	=26	=26	=26	=26	=26
8eq	_	.	.	.	.	.	.	.	.	.	.
4f	mon-	1r	.	1r	.	1CM	.	voice	.	40.668	C:maj
8e	-key	.	.	.	.	.	.	.	a	.	.
[8cc	_	.	.	.	.	.	.	.	.	.	.
4.cc]	_	.	.	.	.	.	.	.	.	.	.
8r	.	.	.	.	.	.	.	.	.	.	.
=27	=27	=27	=27	=27	=27	=27	=27	=27	=27	=27	=27
8eq	_	.	.	.	.	.	.	.	.	.	.
4f	mon-	1r	.	1r	.	1CM	.	voice	.	42.281	C:maj
4e	-key	.	.	.	.	.	.	.	a	.	.
2r	.	.	.	.	.	.	.	.	.	.	.
=28	=28	=28	=28	=28	=28	=28	=28	=28	=28	=28	=28
4r	.	1r	.	1r	.	1CM	.	voice	.	43.894	C:maj
8b-	don't	.	.	.	.	.	.	.	.	.	.
8b-	you	.	.	.	.	.	.	.	.	.	.
8b-	know	.	.	.	.	.	.	.	.	.	.
8a	you're	.	.	.	.	.	.	.	.	.	.
8a	gon-	.	.	.	.	.	.	.	.	.	.
[8g	-na	.	.	.	.	.	.	.	.	.	.
=29	=29	=29	=29	=29	=29	=29	=29	=29	=29	=29	=29
8g]	_	8r	.	1r	.	1Dm	newline	voice	.	45.507	D:min
8a	shock	8f	Shock	.	.	.	.	.	B	.	.
8r	.	8r	.	.	.	.	.	.	.	.	.
8g	the	8e	the	.	.	.	.	.	.	.	.
4g	mon-	4e	mon-	.	.	.	.	.	.	.	.
4f	-key!	4d	-key!	.	.	.	.	.	a	.	.
=30	=30	=30	=30	=30	=30	=30	=30	=30	=30	=30	=30
2r	.	1r	.	1r	.	1Dm	.	voice	.	47.131	D:min
4g	Hey,	.	.	.	.	.	.	.	.	.	.
8ddq	_	.	.	.	.	.	.	.	.	.	.
4f	hey!	.	.	.	.	.	.	.	.	.	.
=31	=31	=31	=31	=31	=31	=31	=31	=31	=31	=31	=31
1r	.	1r	.	1r	.	1Dm	.	voice	.	48.755	D:min
=32	=32	=32	=32	=32	=32	=32	=32	=32	=32	=32	=32
2r	.	1r	.	1r	.	1Dm	.	voice	.	50.379	D:min
8fq	_	.	.	.	.	.	.	.	.	.	.
4.g	Fox	.	.	.	.	.	.	.	B	.	.
[8f	the	.	.	.	.	.	.	.	.	.	.
=33	=33	=33	=33	=33	=33	=33	=33	=33	=33	=33	=33
*>Letter>B	*>Letter>B	*>Letter>B	*>Letter>B	*>Letter>B	*>Letter>B	*>Letter>B	*>Letter>B	*>Letter>B	*>Letter>B	*>Letter>B	*>Letter>B
*>Label>Verse	*>Label>Verse	*>Label>Verse	*>Label>Verse	*>Label>Verse	*>Label>Verse	*>Label>Verse	*>Label>Verse	*>Label>Verse	*>Label>Verse	*>Label>Verse	*>Label>Verse
8f]	_	1r	.	1r	.	1Dm	newline	voice	.	52.003	D:min
4f	fox	.	.	.	.	.	.	.	B	.	.
8r	.	.	.	.	.	.	.	.	.	.	.
2r	.	.	.	.	.	.	.	.	.	.	.
=34	=34	=34	=34	=34	=34	=34	=34	=34	=34	=34	=34
2r	.	1r	.	1r	.	1Dm	.	voice	.	53.614	D:min
8dq	_	.	.	.	.	.	.	.	.	.	.
4e	rat	.	.	.	.	.	.	.	C	.	.
8d	on	.	.	.	.	.	.	.	.	.	.
8c	the	.	.	.	.	.	.	.	.	.	.
=35	=35	=35	=35	=35	=35	=35	=35	=35	=35	=35	=35
4d	rat	1r	.	1r	.	1Dm	.	voice	C	55.225	D:min
4r	.	.	.	.	.	.	.	.	.	.	.
2r	.	.	.	.	.	.	.	.	.	.	.
=36	=36	=36	=36	=36	=36	=36	=36	=36	=36	=36	=36
4r	.	1r	.	1r	.	1Dm	.	voice	.	56.836	D:min
8d	You	.	.	.	.	.	.	.	.	.	.
8d	can	.	.	.	.	.	.	.	.	.	.
8fq	_	.	.	.	.	.	.	.	.	.	.
4g	ape	.	.	.	.	.	.	.	.	.	.
8f	the	.	.	.	.	.	.	.	.	.	.
8f	ape,	.	.	.	.	.	.	.	.	.	.
=37	=37	=37	=37	=37	=37	=37	=37	=37	=37	=37	=37
1r	.	1r	.	1r	.	1Dm	newline	voice	.	58.447	D:min
=38	=38	=38	=38	=38	=38	=38	=38	=38	=38	=38	=38
4r	.	1r	.	1r	.	1Dm	.	voice	.	60.074	D:min
8r	.	.	.	.	.	.	.	.	.	.	.
8c	I	.	.	.	.	.	.	.	.	.	.
8dq	_	.	.	.	.	.	.	.	.	.	.
8e	know	.	.	.	.	.	.	.	.	.	.
8d	a-	.	.	.	.	.	.	.	.	.	.
4c	-bout	.	.	.	.	.	.	.	.	.	.
=39	=39	=39	=39	=39	=39	=39	=39	=39	=39	=39	=39
4d	that	1r	.	1r	.	1Dm	.	voice	C	61.7	D:min
4r	.	.	.	.	.	.	.	.	.	.	.
2r	.	.	.	.	.	.	.	.	.	.	.
=40	=40	=40	=40	=40	=40	=40	=40	=40	=40	=40	=40
2r	.	1r	.	1r	.	1Dm	.	voice	.	63.327	D:min
4r	.	.	.	.	.	.	.	.	.	.	.
8r	.	.	.	.	.	.	.	.	.	.	.
8d	There	.	.	.	.	.	.	.	.	.	.
=41	=41	=41	=41	=41	=41	=41	=41	=41	=41	=41	=41
8d	is	1r	.	1r	.	1Dm	newline	voice	.	64.954	D:min
4d	one	.	.	.	.	.	.	.	.	.	.
[8f	thing	.	.	.	.	.	.	.	.	.	.
8f]	_	.	.	.	.	.	.	.	.	.	.
4f	you	.	.	.	.	.	.	.	.	.	.
[8a	must	.	.	.	.	.	.	.	.	.	.
=42	=42	=42	=42	=42	=42	=42	=42	=42	=42	=42	=42
8a]	_	1r	.	1r	.	1Dm	.	voice	.	66.569	D:min
4f	be	.	.	.	.	.	.	.	.	.	.
8fq	_	.	.	.	.	.	.	.	.	.	.
8g	sure	.	.	.	.	.	.	.	D	.	.
8f	_	.	.	.	.	.	.	.	.	.	.
[8d	of	.	.	.	.	.	.	.	.	.	.
4d]	_	.	.	.	.	.	.	.	.	.	.
=43	=43	=43	=43	=43	=43	=43	=43	=43	=43	=43	=43
8r	.	1r	.	1r	.	1Dm	.	voice	.	68.185	D:min
8d	I	.	.	.	.	.	.	.	.	.	.
4d	can't	.	.	.	.	.	.	.	.	.	.
8f	take	.	.	.	.	.	.	.	.	.	.
8f	a-	.	.	.	.	.	.	.	.	.	.
8f	-ny-	.	.	.	.	.	.	.	.	.	.
8ccq	_	.	.	.	.	.	.	.	.	.	.
[8dd	-more	.	.	.	.	.	.	.	D	.	.
=44	=44	=44	=44	=44	=44	=44	=44	=44	=44	=44	=44
2dd]	_	1r	.	1r	.	1Dm	.	voice	.	69.801	D:min
4r	.	.	.	.	.	.	.	.	.	.	.
8fq	_	.	.	.	.	.	.	.	.	.	.
4g	Dar-	.	.	.	.	.	.	.	.	.	.
=45	=45	=45	=45	=45	=45	=45	=45	=45	=45	=45	=45
4f	-ling	1r	.	1r	.	1Dm	newline	voice	.	71.417	D:min
4r	.	.	.	.	.	.	.	.	.	.	.
2r	.	.	.	.	.	.	.	.	.	.	.
=46	=46	=46	=46	=46	=46	=46	=46	=46	=46	=46	=46
8r	.	1r	.	1r	.	1Dm	.	voice	.	73.028	D:min
8a	don't	.	.	.	.	.	.	.	.	.	.
8g	_	.	.	.	.	.	.	.	.	.	.
8f	you	.	.	.	.	.	.	.	.	.	.
8g	mon-	.	.	.	.	.	.	.	.	.	.
8f	-key	.	.	.	.	.	.	.	a	.	.
8g	with	.	.	.	.	.	.	.	.	.	.
8f	the	.	.	.	.	.	.	.	.	.	.
=47	=47	=47	=47	=47	=47	=47	=47	=47	=47	=47	=47
8f	mon-	1r	.	1r	.	1Dm	.	voice	.	74.638	D:min
4d	-key	.	.	.	.	.	.	.	a	.	.
8r	.	.	.	.	.	.	.	.	.	.	.
2r	.	.	.	.	.	.	.	.	.	.	.
=48	=48	=48	=48	=48	=48	=48	=48	=48	=48	=48	=48
8r	.	1r	.	1r	.	1Dm	.	voice	.	76.248	D:min
8a	Hey,	.	.	.	.	.	.	.	.	.	.
8g	_	.	.	.	.	.	.	.	.	.	.
8f	_	.	.	.	.	.	.	.	.	.	.
8gq	_	.	.	.	.	.	.	.	.	.	.
4a	hey,	.	.	.	.	.	.	.	.	.	.
4g	hey,	.	.	.	.	.	.	.	.	.	.
=49	=49	=49	=49	=49	=49	=49	=49	=49	=49	=49	=49
*>Letter>C	*>Letter>C	*>Letter>C	*>Letter>C	*>Letter>C	*>Letter>C	*>Letter>C	*>Letter>C	*>Letter>C	*>Letter>C	*>Letter>C	*>Letter>C
*>Label>Chorus	*>Label>Chorus	*>Label>Chorus	*>Label>Chorus	*>Label>Chorus	*>Label>Chorus	*>Label>Chorus	*>Label>Chorus	*>Label>Chorus	*>Label>Chorus	*>Label>Chorus	*>Label>Chorus
8eq	_	.	.	.	.	.	.	.	.	.	.
4f	mon-	1r	.	1r	.	1CM	newline	voice	.	77.858	C:maj
4e	-key	.	.	.	.	.	.	.	a	.	.
2r	.	.	.	.	.	.	.	.	.	.	.
=50	=50	=50	=50	=50	=50	=50	=50	=50	=50	=50	=50
8eq	_	.	.	.	.	.	.	.	.	.	.
4f	mon-	1r	.	1r	.	1CM	.	voice	.	79.477	C:maj
8e	-key	.	.	.	.	.	.	.	a	.	.
[8cc	_	.	.	.	.	.	.	.	.	.	.
4.cc]	_	.	.	.	.	.	.	.	.	.	.
8r	.	.	.	.	.	.	.	.	.	.	.
=51	=51	=51	=51	=51	=51	=51	=51	=51	=51	=51	=51
8eq	_	.	.	.	.	.	.	.	.	.	.
4f	mon-	1r	.	1r	.	1CM	.	voice	.	81.095	C:maj
4e	-key	.	.	.	.	.	.	.	a	.	.
2r	.	.	.	.	.	.	.	.	.	.	.
=52	=52	=52	=52	=52	=52	=52	=52	=52	=52	=52	=52
4r	.	1r	.	1r	.	1CM	.	voice	.	82.714	C:maj
8b-	Don't	.	.	.	.	.	.	.	.	.	.
8b-	you	.	.	.	.	.	.	.	.	.	.
8b-	know	.	.	.	.	.	.	.	.	.	.
8a	you're	.	.	.	.	.	.	.	.	.	.
8a	gon-	.	.	.	.	.	.	.	.	.	.
[8g	-na	.	.	.	.	.	.	.	.	.	.
=53	=53	=53	=53	=53	=53	=53	=53	=53	=53	=53	=53
8g]	_	8r	.	1r	.	1Dm	newline	voice	.	84.332	D:min
8a	shock	8f	Shock	.	.	.	.	.	B	.	.
8r	.	8r	.	.	.	.	.	.	.	.	.
8g	the	8e	the	.	.	.	.	.	.	.	.
4g	mon-	4e	mon-	.	.	.	.	.	.	.	.
4f	-key	4d	-key!	.	.	.	.	.	a	.	.
=54	=54	=54	=54	=54	=54	=54	=54	=54	=54	=54	=54
2r	.	1r	.	1r	.	1Dm	.	voice	.	85.955	D:min
4g	Hey,	.	.	.	.	.	.	.	.	.	.
8ddq	_	.	.	.	.	.	.	.	.	.	.
4f	hey	.	.	.	.	.	.	.	.	.	.
=55	=55	=55	=55	=55	=55	=55	=55	=55	=55	=55	=55
8r	.	8r	.	1r	.	1Dm	.	voice	.	87.578	D:min
8a	shock	8f	Shock	.	.	.	.	.	B	.	.
8r	.	8r	.	.	.	.	.	.	.	.	.
8g	the	8e	the	.	.	.	.	.	.	.	.
4g	mon-	4e	mon-	.	.	.	.	.	.	.	.
4f	-key	4d	-key!	.	.	.	.	.	a	.	.
=56	=56	=56	=56	=56	=56	=56	=56	=56	=56	=56	=56
8r	.	1r	.	1r	.	1Dm	.	voice	.	89.201	D:min
8a	Hey,	.	.	.	.	.	.	.	.	.	.
8g	_	.	.	.	.	.	.	.	.	.	.
8f	_	.	.	.	.	.	.	.	.	.	.
8gq	_	.	.	.	.	.	.	.	.	.	.
4a	hey,	.	.	.	.	.	.	.	.	.	.
4g	hey,	.	.	.	.	.	.	.	.	.	.
=57	=57	=57	=57	=57	=57	=57	=57	=57	=57	=57	=57
*>Letter>D	*>Letter>D	*>Letter>D	*>Letter>D	*>Letter>D	*>Letter>D	*>Letter>D	*>Letter>D	*>Letter>D	*>Letter>D	*>Letter>D	*>Letter>D
*>Label>Bridge	*>Label>Bridge	*>Label>Bridge	*>Label>Bridge	*>Label>Bridge	*>Label>Bridge	*>Label>Bridge	*>Label>Bridge	*>Label>Bridge	*>Label>Bridge	*>Label>Bridge	*>Label>Bridge
8f	yeah	1r	.	1r	.	1Dm	newline	voice	.	90.824	D:5
4d	_	.	.	.	.	.	.	.	.	.	.
8r	.	.	.	.	.	.	.	.	.	.	.
2r	.	.	.	.	.	.	.	.	.	.	.
=58	=58	=58	=58	=58	=58	=58	=58	=58	=58	=58	=58
2r	.	1r	.	1r	.	1Dm	.	voice	.	92.438	D:5
4r	.	.	.	.	.	.	.	.	.	.	.
8gq	_	.	.	.	.	.	.	.	.	.	.
4a	Mon-	.	.	.	.	.	.	.	.	.	.
=59	=59	=59	=59	=59	=59	=59	=59	=59	=59	=59	=59
4g	-key	1r	.	1r	.	1CM	.	voice	a	94.053	C:5
4r	.	.	.	.	.	.	.	.	.	.	.
2r	.	.	.	.	.	.	.	.	.	.	.
=60	=60	=60	=60	=60	=60	=60	=60	=60	=60	=60	=60
8dq	_	.	.	.	.	.	.	.	.	.	.
16e	Whe-	1r	.	1r	.	1CM	.	voice	(A	95.668	C:5
8.e	-els	.	.	.	.	.	.	.	a)	.	.
4f	keep	.	.	.	.	.	.	.	A	.	.
8dq	_	.	.	.	.	.	.	.	.	.	.
4e	tur-	.	.	.	.	.	.	.	(E	.	.
4d	-ning...	.	.	.	.	.	.	.	a)	.	.
=61	=61	=61	=61	=61	=61	=61	=61	=61	=61	=61	=61
1r	.	1r	.	1r	.	1Dm	newline	voice	.	97.283	D:min
=62	=62	=62	=62	=62	=62	=62	=62	=62	=62	=62	=62
*	*	*clefG2	*	*	*	*	*	*	*	*	*
1r	.	2r	.	1r	.	1Dm	.	voice	.	98.898	D:min
.	.	8r	.	.	.	.	.	.	.	.	.
.	.	8d	A	.	.	.	.	.	.	.	.
.	.	4d	mon-	.	.	.	.	.	.	.	.
=63	=63	=63	=63	=63	=63	=63	=63	=63	=63	=63	=63
.	.	8ccq	_	.	.	.	.	.	.	.	.
1r	.	2.dd	-key	1r	.	1CM	.	voice	a	100.513	C:5
.	.	[4cc	_	.	.	.	.	.	.	.	.
=64	=64	=64	=64	=64	=64	=64	=64	=64	=64	=64	=64
8fq	_	.	.	.	.	.	.	.	.	.	.
4g	Some-	4cc]	_	1r	.	1CM	.	voice	.	102.128	C:sus4
4f	-thing's	4r	.	.	.	.	.	.	a	.	.
8dq	_	8ddq	_	.	.	.	.	.	.	.	.
4e	bur-	[2ee	yeah	.	.	.	.	.	(E	.	.
[4d	-ning	.	.	.	.	.	.	.	a)	.	.
=65	=65	=65	=65	=65	=65	=65	=65	=65	=65	=65	=65
8d]	_	4ee]	_	1r	.	1Dm	newline	voice	.	103.743	D:min
8r	.	.	.	.	.	.	.	.	.	.	.
4r	.	2.dd	_	.	.	.	.	.	.	.	.
2r	.	.	.	.	.	.	.	.	.	.	.
=66	=66	=66	=66	=66	=66	=66	=66	=66	=66	=66	=66
1r	.	2r	.	1r	.	1Dm	.	voice	.	105.362	D:min
.	.	4r	.	.	.	.	.	.	.	.	.
.	.	8gq	_	.	.	.	.	.	.	.	.
.	.	4a	Mon-	.	.	.	.	.	.	.	.
=67	=67	=67	=67	=67	=67	=67	=67	=67	=67	=67	=67
4r	.	4g	-key	1r	.	1CM	.	voice	a	106.981	C:maj
4g	Don't	4r	.	.	.	.	.	.	.	.	.
8g	like	2r	.	.	.	.	.	.	.	.	.
8f	it	.	.	.	.	.	.	.	.	.	.
8g	but	.	.	.	.	.	.	.	.	.	.
8f	I	.	.	.	.	.	.	.	.	.	.
=68	=68	=68	=68	=68	=68	=68	=68	=68	=68	=68	=68
8a	guess	1r	.	1r	.	1CM	.	voice	.	108.6	C:sus4
4g	I'm	.	.	.	.	.	.	.	.	.	.
8fq	_	.	.	.	.	.	.	.	.	.	.
[8g	lear	.	.	.	.	.	.	.	(E	.	.
8g]	_	.	.	.	.	.	.	.	.	.	.
8.f	ning!	.	.	.	.	.	.	.	a)	.	.
8.r	.	.	.	.	.	.	.	.	.	.	.
=69	=69	=69	=69	=69	=69	=69	=69	=69	=69	=69	=69
1r	.	1r	.	1r	.	1B-M	newline	guitar	.	110.219	B-:maj
=70	=70	=70	=70	=70	=70	=70	=70	=70	=70	=70	=70
2r	.	1r	.	1r	.	1B-M	.	guitar	.	111.827	B-:maj
8r	.	.	.	.	.	.	.	.	.	.	.
4G	Shock!	.	.	.	.	.	.	.	B	.	.
8r	.	.	.	.	.	.	.	.	.	.	.
=71	=71	=71	=71	=71	=71	=71	=71	=71	=71	=71	=71
1r	.	1r	.	1r	.	1B-M	.	guitar	.	113.436	B-:maj
=72	=72	=72	=72	=72	=72	=72	=72	=72	=72	=72	=72
2r	.	1r	.	1r	.	1B-M	.	guitar	.	115.044	B-:maj
8r	.	.	.	.	.	.	.	.	.	.	.
4G	Shock!	.	.	.	.	.	.	.	B	.	.
8r	.	.	.	.	.	.	.	.	.	.	.
=73	=73	=73	=73	=73	=73	=73	=73	=73	=73	=73	=73
1r	.	1r	.	1r	.	1B-M	newline	guitar	.	116.653	B-:maj
=74	=74	=74	=74	=74	=74	=74	=74	=74	=74	=74	=74
2r	.	1r	.	1r	.	1B-M	.	guitar	.	118.273	B-:maj
8r	.	.	.	.	.	.	.	.	.	.	.
4G	Shock!	.	.	.	.	.	.	.	B	.	.
8r	.	.	.	.	.	.	.	.	.	.	.
=75	=75	=75	=75	=75	=75	=75	=75	=75	=75	=75	=75
8r	.	1r	.	1r	.	1CM	.	guitar	.	119.893	C:sus4
4a	Watch	.	.	.	.	.	.	.	B	.	.
8g	the	.	.	.	.	.	.	.	.	.	.
6g	mon-	.	.	.	.	.	.	.	.	.	.
6f	-key	.	.	.	.	.	.	.	a	.	.
6g	get	.	.	.	.	.	.	.	.	.	.
=76	=76	=76	=76	=76	=76	=76	=76	=76	=76	=76	=76
8gq	_	.	.	.	.	.	.	.	.	.	.
4a	hurt	1r	.	1r	.	1Dm	.	guitar	E	121.514	D:min
4r	.	.	.	.	.	.	.	.	.	.	.
8fq	_	.	.	.	.	.	.	.	.	.	.
4g	mon-	.	.	.	.	.	.	.	.	.	.
4f	-key!	.	.	.	.	.	.	.	a	.	.
=77	=77	=77	=77	=77	=77	=77	=77	=77	=77	=77	=77
*>Letter>A	*>Letter>A	*>Letter>A	*>Letter>A	*>Letter>A	*>Letter>A	*>Letter>A	*>Letter>A	*>Letter>A	*>Letter>A	*>Letter>A	*>Letter>A
*>Label>Instrumental	*>Label>Instrumental	*>Label>Instrumental	*>Label>Instrumental	*>Label>Instrumental	*>Label>Instrumental	*>Label>Instrumental	*>Label>Instrumental	*>Label>Instrumental	*>Label>Instrumental	*>Label>Instrumental	*>Label>Instrumental
1r	.	1r	.	1r	.	1Dm	newline	synthesizer	.	123.134	D:min
=78	=78	=78	=78	=78	=78	=78	=78	=78	=78	=78	=78
1r	.	1r	.	1r	.	1Dm	.	synthesizer	.	124.765	D:min
=79	=79	=79	=79	=79	=79	=79	=79	=79	=79	=79	=79
1r	.	1r	.	1r	.	1Dm	.	synthesizer	.	126.397	D:min
=80	=80	=80	=80	=80	=80	=80	=80	=80	=80	=80	=80
1r	.	1r	.	1r	.	1Dm	.	synthesizer	.	128.028	D:min
=81	=81	=81	=81	=81	=81	=81	=81	=81	=81	=81	=81
1r	.	1r	.	1r	.	1Dm	newline	synthesizer	.	129.659	D:min
=82	=82	=82	=82	=82	=82	=82	=82	=82	=82	=82	=82
1r	.	1r	.	1r	.	1Dm	.	synthesizer	.	131.255	D:min
=83	=83	=83	=83	=83	=83	=83	=83	=83	=83	=83	=83
1r	.	1r	.	1r	.	1Dm	.	synthesizer	.	132.85	D:min
=84	=84	=84	=84	=84	=84	=84	=84	=84	=84	=84	=84
2r	.	1r	.	1r	.	1Dm	.	synthesizer	.	134.446	D:min
8fq	_	.	.	.	.	.	.	.	.	.	.
4.g	Co-	.	.	.	.	.	.	.	.	.	.
[8f	-ver	.	.	.	.	.	.	.	.	.	.
=85	=85	=85	=85	=85	=85	=85	=85	=85	=85	=85	=85
*>Letter>B	*>Letter>B	*>Letter>B	*>Letter>B	*>Letter>B	*>Letter>B	*>Letter>B	*>Letter>B	*>Letter>B	*>Letter>B	*>Letter>B	*>Letter>B
*>Label>Verse	*>Label>Verse	*>Label>Verse	*>Label>Verse	*>Label>Verse	*>Label>Verse	*>Label>Verse	*>Label>Verse	*>Label>Verse	*>Label>Verse	*>Label>Verse	*>Label>Verse
8f]	_	1r	.	1r	.	1Dm	newline	voice	.	136.042	D:min
8f	me	.	.	.	.	.	.	.	A	.	.
4r	.	.	.	.	.	.	.	.	.	.	.
2r	.	.	.	.	.	.	.	.	.	.	.
=86	=86	=86	=86	=86	=86	=86	=86	=86	=86	=86	=86
2r	.	1r	.	1r	.	1Dm	.	voice	.	137.667	D:min
8dq	_	.	.	.	.	.	.	.	.	.	.
4e	when	.	.	.	.	.	.	.	.	.	.
[4d	I	.	.	.	.	.	.	.	.	.	.
=87	=87	=87	=87	=87	=87	=87	=87	=87	=87	=87	=87
8d]	_	1r	.	1r	.	1Dm	.	voice	.	139.292	D:min
4d	sleep	.	.	.	.	.	.	.	A	.	.
8r	.	.	.	.	.	.	.	.	.	.	.
2r	.	.	.	.	.	.	.	.	.	.	.
=88	=88	=88	=88	=88	=88	=88	=88	=88	=88	=88	=88
2r	.	1r	.	1r	.	1Dm	.	voice	.	140.917	D:min
8fq	_	.	.	.	.	.	.	.	.	.	.
4.g	Co-	.	.	.	.	.	.	.	.	.	.
[8f	-ver	.	.	.	.	.	.	.	.	.	.
=89	=89	=89	=89	=89	=89	=89	=89	=89	=89	=89	=89
8f]	_	1r	.	1r	.	1Dm	newline	voice	.	142.543	D:min
4f	me	.	.	.	.	.	.	.	A	.	.
8r	.	.	.	.	.	.	.	.	.	.	.
2r	.	.	.	.	.	.	.	.	.	.	.
=90	=90	=90	=90	=90	=90	=90	=90	=90	=90	=90	=90
2r	.	1r	.	1r	.	1Dm	.	voice	.	144.158	D:min
8e	when	.	.	.	.	.	.	.	.	.	.
4.d	I	.	.	.	.	.	.	.	.	.	.
=91	=91	=91	=91	=91	=91	=91	=91	=91	=91	=91	=91
4d	breathe	1r	.	1r	.	1Dm	.	voice	A	145.773	D:min
4r	.	.	.	.	.	.	.	.	.	.	.
2r	.	.	.	.	.	.	.	.	.	.	.
=92	=92	=92	=92	=92	=92	=92	=92	=92	=92	=92	=92
2r	.	1r	.	1r	.	1Dm	.	voice	.	147.388	D:min
4r	.	.	.	.	.	.	.	.	.	.	.
8r	.	.	.	.	.	.	.	.	.	.	.
8A	You	.	.	.	.	.	.	.	.	.	.
=93	=93	=93	=93	=93	=93	=93	=93	=93	=93	=93	=93
8d	throw	1r	.	1r	.	1Dm	newline	voice	.	149.002	D:min
4d	your	.	.	.	.	.	.	.	.	.	.
[8f	pearls	.	.	.	.	.	.	.	.	.	.
8f]	_	.	.	.	.	.	.	.	.	.	.
4f	be-	.	.	.	.	.	.	.	a	.	.
[8a	-fore	.	.	.	.	.	.	.	.	.	.
=94	=94	=94	=94	=94	=94	=94	=94	=94	=94	=94	=94
8a]	_	1r	.	1r	.	1Dm	.	voice	.	150.62	D:min
4a	the	.	.	.	.	.	.	.	.	.	.
8fq	_	.	.	.	.	.	.	.	.	.	.
[8g	swine	.	.	.	.	.	.	.	F	.	.
16g]	_	.	.	.	.	.	.	.	.	.	.
16f	_	.	.	.	.	.	.	.	.	.	.
[8d	_	.	.	.	.	.	.	.	.	.	.
4d]	_	.	.	.	.	.	.	.	.	.	.
=95	=95	=95	=95	=95	=95	=95	=95	=95	=95	=95	=95
8r	.	1r	.	1r	.	1Dm	.	voice	.	152.237	D:min
8d	m-	.	.	.	.	.	.	.	.	.	.
8d	-make	.	.	.	.	.	.	.	.	.	.
8d	the	.	.	.	.	.	.	.	.	.	.
8f	mon-	.	.	.	.	.	.	.	.	.	.
4f	-key	.	.	.	.	.	.	.	a	.	.
8ccq	_	.	.	.	.	.	.	.	.	.	.
[8dd	blind	.	.	.	.	.	.	.	F	.	.
=96	=96	=96	=96	=96	=96	=96	=96	=96	=96	=96	=96
2dd]	_	1r	.	1r	.	1Dm	.	voice	.	153.854	D:min
8r	.	.	.	.	.	.	.	.	.	.	.
8fq	_	.	.	.	.	.	.	.	.	.	.
4g	Co-	.	.	.	.	.	.	.	.	.	.
[8f	-ver	.	.	.	.	.	.	.	.	.	.
=97	=97	=97	=97	=97	=97	=97	=97	=97	=97	=97	=97
8f]	_	1r	.	1r	.	1Dm	newline	voice	.	155.472	D:min
4f	me	.	.	.	.	.	.	.	a	.	.
8r	.	.	.	.	.	.	.	.	.	.	.
2r	.	.	.	.	.	.	.	.	.	.	.
=98	=98	=98	=98	=98	=98	=98	=98	=98	=98	=98	=98
2r	.	1r	.	1r	.	1Dm	.	voice	.	157.096	D:min
4e	dar-	.	.	.	.	.	.	.	.	.	.
4d	-ling,	.	.	.	.	.	.	.	.	.	.
=99	=99	=99	=99	=99	=99	=99	=99	=99	=99	=99	=99
4d	please	1r	.	1r	.	1Dm	.	voice	A	158.72	D:min
4r	.	.	.	.	.	.	.	.	.	.	.
2r	.	.	.	.	.	.	.	.	.	.	.
=100	=100	=100	=100	=100	=100	=100	=100	=100	=100	=100	=100
8r	.	1r	.	1r	.	1Dm	.	voice	.	160.344	D:min
8a	Hey,	.	.	.	.	.	.	.	.	.	.
8g	_	.	.	.	.	.	.	.	.	.	.
8f	_	.	.	.	.	.	.	.	.	.	.
8gq	_	.	.	.	.	.	.	.	.	.	.
4a	hey,	.	.	.	.	.	.	.	.	.	.
4g	hey,	.	.	.	.	.	.	.	.	.	.
=101	=101	=101	=101	=101	=101	=101	=101	=101	=101	=101	=101
*>Letter>D	*>Letter>D	*>Letter>D	*>Letter>D	*>Letter>D	*>Letter>D	*>Letter>D	*>Letter>D	*>Letter>D	*>Letter>D	*>Letter>D	*>Letter>D
*>Label>Bridge	*>Label>Bridge	*>Label>Bridge	*>Label>Bridge	*>Label>Bridge	*>Label>Bridge	*>Label>Bridge	*>Label>Bridge	*>Label>Bridge	*>Label>Bridge	*>Label>Bridge	*>Label>Bridge
8f	yeah	1r	.	1r	.	1Dm	newline	voice	.	161.969	D:5
4d	_	.	.	.	.	.	.	.	.	.	.
8r	.	.	.	.	.	.	.	.	.	.	.
2r	.	.	.	.	.	.	.	.	.	.	.
=102	=102	=102	=102	=102	=102	=102	=102	=102	=102	=102	=102
2r	.	1r	.	1r	.	1Dm	.	voice	.	163.587	D:5
4r	.	.	.	.	.	.	.	.	.	.	.
8gq	_	.	.	.	.	.	.	.	.	.	.
4a	Mon-	.	.	.	.	.	.	.	.	.	.
=103	=103	=103	=103	=103	=103	=103	=103	=103	=103	=103	=103
4g	-key	1r	.	1r	.	1CM	.	voice	a	165.206	C:5
4r	.	.	.	.	.	.	.	.	.	.	.
2r	.	.	.	.	.	.	.	.	.	.	.
=104	=104	=104	=104	=104	=104	=104	=104	=104	=104	=104	=104
4e	Too	1r	.	1r	.	1CM	.	voice	.	166.824	C:5
4f	much	.	.	.	.	.	.	.	.	.	.
4e	at	.	.	.	.	.	.	.	.	.	.
8cq	_	.	.	.	.	.	.	.	.	.	.
4d	stake!	.	.	.	.	.	.	.	G	.	.
=105	=105	=105	=105	=105	=105	=105	=105	=105	=105	=105	=105
1r	.	1r	.	1r	.	1Dm	newline	voice	.	168.443	D:min
=106	=106	=106	=106	=106	=106	=106	=106	=106	=106	=106	=106
1r	.	2r	.	1r	.	1Dm	.	voice	.	170.056	D:min
.	.	8r	.	.	.	.	.	.	.	.	.
.	.	8d	A	.	.	.	.	.	.	.	.
.	.	4d	mon-	.	.	.	.	.	.	.	.
=107	=107	=107	=107	=107	=107	=107	=107	=107	=107	=107	=107
.	.	8ccq	_	.	.	.	.	.	.	.	.
1r	.	2.dd	-key	1r	.	1CM	.	voice	a	171.67	C:sus4
.	.	[4cc	_	.	.	.	.	.	.	.	.
=108	=108	=108	=108	=108	=108	=108	=108	=108	=108	=108	=108
8fq	_	.	.	.	.	.	.	.	.	.	.
4g	Ground	4cc]	_	1r	.	1CM	.	voice	.	173.284	C:sus4
8f	be-	4r	.	.	.	.	.	.	(a	.	.
[8e	-neath	.	.	.	.	.	.	.	A)	.	.
.	.	8ddq	_	.	.	.	.	.	.	.	.
8e]	_	[2ee	yeah	.	.	.	.	.	.	.	.
4.c	me,	.	.	.	.	.	.	.	A	.	.
=109	=109	=109	=109	=109	=109	=109	=109	=109	=109	=109	=109
4d	shake	4ee]	_	1r	.	1Dm	newline	voice	.	174.897	D:min
4r	.	2.dd	_	.	.	.	.	.	.	.	.
2r	.	.	.	.	.	.	.	.	.	.	.
=110	=110	=110	=110	=110	=110	=110	=110	=110	=110	=110	=110
1r	.	2r	.	1r	.	1Dm	.	voice	.	176.52	D:min
.	.	4r	.	.	.	.	.	.	.	.	.
.	.	8gq	_	.	.	.	.	.	.	.	.
.	.	4a	Mon-	.	.	.	.	.	.	.	.
=111	=111	=111	=111	=111	=111	=111	=111	=111	=111	=111	=111
2r	.	4g	-key	1r	.	1CM	.	voice	a	178.142	C:maj
.	.	4r	.	.	.	.	.	.	.	.	.
8r	.	2r	.	.	.	.	.	.	.	.	.
8d	And	.	.	.	.	.	.	.	.	.	.
8f	the	.	.	.	.	.	.	.	.	.	.
[8a	news	.	.	.	.	.	.	.	.	.	.
=112	=112	=112	=112	=112	=112	=112	=112	=112	=112	=112	=112
8a]	_	1r	.	1r	.	1CM	.	voice	.	179.765	C:maj
4g	is	.	.	.	.	.	.	.	.	.	.
8fq	_	.	.	.	.	.	.	.	.	.	.
[8g	brea	.	.	.	.	.	.	.	.	.	.
8g]	_	.	.	.	.	.	.	.	.	.	.
4.f	king!	.	.	.	.	.	.	.	a	.	.
=113	=113	=113	=113	=113	=113	=113	=113	=113	=113	=113	=113
1r	.	1r	.	1r	.	1B-M	newline	guitar	.	181.387	B-:maj
=114	=114	=114	=114	=114	=114	=114	=114	=114	=114	=114	=114
2r	.	1r	.	1r	.	1B-M	.	guitar	.	183.015	B-:maj
8r	.	.	.	.	.	.	.	.	.	.	.
4G	Shock!	.	.	.	.	.	.	.	B	.	.
8r	.	.	.	.	.	.	.	.	.	.	.
=115	=115	=115	=115	=115	=115	=115	=115	=115	=115	=115	=115
1r	.	1r	.	1r	.	1B-M	.	guitar	.	184.643	B-:maj
=116	=116	=116	=116	=116	=116	=116	=116	=116	=116	=116	=116
2r	.	1r	.	1r	.	1B-M	.	guitar	.	186.271	B-:maj
8r	.	.	.	.	.	.	.	.	.	.	.
4G	Shock!	.	.	.	.	.	.	.	B	.	.
8r	.	.	.	.	.	.	.	.	.	.	.
=117	=117	=117	=117	=117	=117	=117	=117	=117	=117	=117	=117
1r	.	1r	.	1r	.	1B-M	newline	guitar	.	187.899	B-:maj
=118	=118	=118	=118	=118	=118	=118	=118	=118	=118	=118	=118
2r	.	1r	.	1r	.	1B-M	.	guitar	.	189.51	B-:maj
8r	.	.	.	.	.	.	.	.	.	.	.
4G	Shock!	.	.	.	.	.	.	.	B	.	.
8r	.	.	.	.	.	.	.	.	.	.	.
=119	=119	=119	=119	=119	=119	=119	=119	=119	=119	=119	=119
8r	.	1r	.	1r	.	1CM	.	guitar	.	191.121	C:maj
4a	Watch	.	.	.	.	.	.	.	B	.	.
8g	the	.	.	.	.	.	.	.	.	.	.
6g	mon-	.	.	.	.	.	.	.	.	.	.
6f	-key	.	.	.	.	.	.	.	a	.	.
6g	get	.	.	.	.	.	.	.	.	.	.
=120	=120	=120	=120	=120	=120	=120	=120	=120	=120	=120	=120
8gq	_	.	.	.	.	.	.	.	.	.	.
4a	hurt	1r	.	1r	.	1Dm	.	guitar	E	192.732	D:min
4r	.	.	.	.	.	.	.	.	.	.	.
8fq	_	.	.	.	.	.	.	.	.	.	.
4g	Mon-	.	.	.	.	.	.	.	.	.	.
4f	-key!	.	.	.	.	.	.	.	a	.	.
=121	=121	=121	=121	=121	=121	=121	=121	=121	=121	=121	=121
*>Letter>E	*>Letter>E	*>Letter>E	*>Letter>E	*>Letter>E	*>Letter>E	*>Letter>E	*>Letter>E	*>Letter>E	*>Letter>E	*>Letter>E	*>Letter>E
*>Label>Outro	*>Label>Outro	*>Label>Outro	*>Label>Outro	*>Label>Outro	*>Label>Outro	*>Label>Outro	*>Label>Outro	*>Label>Outro	*>Label>Outro	*>Label>Outro	*>Label>Outro
1r	.	1r	.	1r	.	1FM	newline	synthesizer	.	194.343	F:maj
=122	=122	=122	=122	=122	=122	=122	=122	=122	=122	=122	=122
1r	.	1r	.	1r	.	1Am	.	synthesizer	.	195.959	A:min/5
=123	=123	=123	=123	=123	=123	=123	=123	=123	=123	=123	=123
8r	.	1r	.	1r	.	1Dmm	.	synthesizer	.	197.574	D:min7
8a	Shock	.	.	.	.	.	.	.	B	.	.
8r	.	.	.	.	.	.	.	.	.	.	.
8g	the	.	.	.	.	.	.	.	.	.	.
4g	mon-	.	.	.	.	.	.	.	.	.	.
4f	-key!	.	.	.	.	.	.	.	a	.	.
=124	=124	=124	=124	=124	=124	=124	=124	=124	=124	=124	=124
1r	.	1r	.	1r	.	1Dmm	.	synthesizer	.	199.19	D:min7
=125	=125	=125	=125	=125	=125	=125	=125	=125	=125	=125	=125
1r	.	1r	.	1r	.	1FM	newline	synthesizer	.	200.805	F:maj
=126	=126	=126	=126	=126	=126	=126	=126	=126	=126	=126	=126
1r	.	1r	.	1r	.	1Am	.	synthesizer	.	202.431	A:min/5
=127	=127	=127	=127	=127	=127	=127	=127	=127	=127	=127	=127
8r	.	1r	.	1r	.	1Dmm	.	synthesizer	.	204.057	D:min7
8a	Shock	.	.	.	.	.	.	.	B	.	.
8r	.	.	.	.	.	.	.	.	.	.	.
8g	the	.	.	.	.	.	.	.	.	.	.
4g	mon-	.	.	.	.	.	.	.	.	.	.
4f	-key!	.	.	.	.	.	.	.	a	.	.
=128	=128	=128	=128	=128	=128	=128	=128	=128	=128	=128	=128
1r	.	1r	.	1r	.	1Dmm	.	synthesizer	.	205.682	D:min7
=129	=129	=129	=129	=129	=129	=129	=129	=129	=129	=129	=129
1r	.	4d	Shock	1r	.	1Dm	newline	synthesizer	B	207.308	D:min
.	.	8~d	the	.	.	.	.	.	.	.	.
.	.	8~e	mon	.	.	.	.	.	.	.	.
.	.	8r	.	.	.	.	.	.	.	.	.
.	.	8~f	key	.	.	.	.	.	a	.	.
.	.	8~e	to	.	.	.	.	.	.	.	.
.	.	8~d	life!	.	.	.	.	.	F	.	.
=130	=130	=130	=130	=130	=130	=130	=130	=130	=130	=130	=130
1r	.	1r	.	1r	.	1Dm	.	synthesizer	.	208.919	D:min
=131	=131	=131	=131	=131	=131	=131	=131	=131	=131	=131	=131
1r	.	4d	Shock	1r	.	1Dm	.	synthesizer	B	210.531	D:min
.	.	8~d	the	.	.	.	.	.	.	.	.
.	.	8~e	mon	.	.	.	.	.	.	.	.
.	.	8r	.	.	.	.	.	.	.	.	.
.	.	8~f	key	.	.	.	.	.	a	.	.
.	.	8~e	to	.	.	.	.	.	.	.	.
.	.	8~d	life!	.	.	.	.	.	F	.	.
=132	=132	=132	=132	=132	=132	=132	=132	=132	=132	=132	=132
1r	.	1r	.	1r	.	1Dm	.	synthesizer	.	212.142	D:min
=133	=133	=133	=133	=133	=133	=133	=133	=133	=133	=133	=133
8r	.	4d	Shock	1r	.	1Dm	newline	synthesizer	B	213.753	D:min
8d	Huh	.	.	.	.	.	.	.	.	.	.
4r	.	8~d	the	.	.	.	.	.	.	.	.
.	.	8~e	mon	.	.	.	.	.	.	.	.
8d	huh	8r	.	.	.	.	.	.	.	.	.
4r	.	8~f	key	.	.	.	.	.	a	.	.
.	.	8~e	to	.	.	.	.	.	.	.	.
8d	huh!	8~d	life!	.	.	.	.	.	F	.	.
=134	=134	=134	=134	=134	=134	=134	=134	=134	=134	=134	=134
1r	.	1r	.	1r	.	1Dm	.	synthesizer	.	215.382	D:min
=135	=135	=135	=135	=135	=135	=135	=135	=135	=135	=135	=135
1r	.	4d	Shock	1r	.	1Dm	.	synthesizer	B	217.011	D:min
.	.	8~d	the	.	.	.	.	.	.	.	.
.	.	8~e	mon	.	.	.	.	.	.	.	.
.	.	8r	.	.	.	.	.	.	.	.	.
.	.	8~f	key	.	.	.	.	.	a	.	.
.	.	8~e	to	.	.	.	.	.	.	.	.
.	.	8~d	life!	.	.	.	.	.	F	.	.
=136	=136	=136	=136	=136	=136	=136	=136	=136	=136	=136	=136
1r	.	1r	.	1r	.	1Dm	.	synthesizer	.	218.641	D:min
=137	=137	=137	=137	=137	=137	=137	=137	=137	=137	=137	=137
*clefG2	*	*	*	*	*	*	*	*	*	*	*
8r	.	4d	Shock	8r	.	1Dm	newline	synthesizer	B	220.27	D:min
8a	Shock	.	.	8d	Huh	.	.	.	B	.	.
8r	.	8~d	the	4r	.	.	.	.	.	.	.
8g	the	8~e	mon	.	.	.	.	.	.	.	.
4g	mon-	8r	.	8d	huh	.	.	.	.	.	.
.	.	8~f	key	4r	.	.	.	.	a	.	.
4f	-key!	8~e	to	.	.	.	.	.	a	.	.
.	.	8~d	life!	8d	huh!	.	.	.	F	.	.
=138	=138	=138	=138	=138	=138	=138	=138	=138	=138	=138	=138
8r	.	1r	.	1r	.	1Dm	.	synthesizer	.	221.892	D:min
8ggq	_	.	.	.	.	.	.	.	.	.	.
8aa	Shock	.	.	.	.	.	.	.	B	.	.
8r	.	.	.	.	.	.	.	.	.	.	.
8cc	the	.	.	.	.	.	.	.	.	.	.
4dd	mon-	.	.	.	.	.	.	.	.	.	.
4cc	-key!	.	.	.	.	.	.	.	a	.	.
=139	=139	=139	=139	=139	=139	=139	=139	=139	=139	=139	=139
8r	.	4d	Shock	1r	.	1Dm	.	synthesizer	B	223.515	D:min
8a	Shock	.	.	.	.	.	.	.	B	.	.
8r	.	8~d	the	.	.	.	.	.	.	.	.
8g	the	8~e	mon	.	.	.	.	.	.	.	.
4g	mon-	8r	.	.	.	.	.	.	.	.	.
.	.	8~f	key	.	.	.	.	.	a	.	.
4f	-key!	8~e	to	.	.	.	.	.	a	.	.
.	.	8~d	life!	.	.	.	.	.	F	.	.
=140	=140	=140	=140	=140	=140	=140	=140	=140	=140	=140	=140
8r	.	1r	.	1r	.	1Dm	.	synthesizer	.	225.138	D:min
8ggq	_	.	.	.	.	.	.	.	.	.	.
8aa	Shock	.	.	.	.	.	.	.	B	.	.
8r	.	.	.	.	.	.	.	.	.	.	.
8cc	the	.	.	.	.	.	.	.	.	.	.
4dd	mon-	.	.	.	.	.	.	.	.	.	.
4cc	-key!	.	.	.	.	.	.	.	a	.	.
=141	=141	=141	=141	=141	=141	=141	=141	=141	=141	=141	=141
1r	.	1r	.	1r	.	1FM	newline	synthesizer	.	226.761	F:maj
=142	=142	=142	=142	=142	=142	=142	=142	=142	=142	=142	=142
1r	.	1r	.	1r	.	1Am	.	synthesizer	.	228.378	A:min/5
=143	=143	=143	=143	=143	=143	=143	=143	=143	=143	=143	=143
8r	.	1r	.	1r	.	1Dm	.	synthesizer	.	229.996	D:min
8a	Shock	.	.	.	.	.	.	.	B	.	.
8r	.	.	.	.	.	.	.	.	.	.	.
8g	the	.	.	.	.	.	.	.	.	.	.
4g	mon-	.	.	.	.	.	.	.	.	.	.
4f	-key!	.	.	.	.	.	.	.	a	.	.
=144	=144	=144	=144	=144	=144	=144	=144	=144	=144	=144	=144
1r	.	1r	.	1r	.	1Dm	.	synthesizer	.	231.614	D:min
=145	=145	=145	=145	=145	=145	=145	=145	=145	=145	=145	=145
4d	Shock	1r	.	1r	.	1Dm	newline	voice	B	233.232	D:min
8~d	the	.	.	.	.	.	.	.	.	.	.
8~f	mon	.	.	.	.	.	.	.	.	.	.
8r	.	.	.	.	.	.	.	.	.	.	.
8~f	key	.	.	.	.	.	.	.	a	.	.
8~e	to	.	.	.	.	.	.	.	.	.	.
8~d	life!	.	.	.	.	.	.	.	F	.	.
=146	=146	=146	=146	=146	=146	=146	=146	=146	=146	=146	=146
1r	.	1r	.	1r	.	1Dm	.	voice	.	234.538	D:min
r;	.	r;	.	r;	.	1r;	.	r	.	235.845	N.C.
r;	.	r;	.	r;	.	1r;	.	r	.	239.047	N.C.
*-	*-	*-	*-	*-	*-	*-	*-	*-	*-	*-	*-
!!!BillboardChartDate: 1982/11/06, 1982/12/04
!!!BillboardPeak: 29, 29
!!!BillboardWeeksOnChart: 18, 18
!!!COC: Peter Gabriel
!!!ENC: Nathaniel Condit-Schultz
!!!EST: Awating manual error checking and editing.
!!!OTL: Shock The Monkey
!!!RDF**chordsym: original McGill chord annotation + (implied pitch class set, with bass pitch in first position)
!!!RDF**harmony: **recip + pitch class of root + harmonic quality
!!!RDF**leadinstrument: original McGill primary instrumentation annotation
!!!RDF**phrase: newline = linebreak in original McGill transcription
!!!RDF**timestamp: McGill audio timestamp in seconds
!!!RDT: 2017/01/12/
!!!SampleActualRank: 60, 39
!!!SampleID#: 92, 141
!!!SampleTargetRank: 59, 39
